X:160
T: Connie Fleming's
S: "Johnny O'Leary of Sliabh Luachra" (#145)
Z: B.Black
L: 1/8
M: 2/4
Q: 260
R: polka
K: G
G/A/G/F/ GA|Bd e/f/g|B2 B/c/B/A/|GE F/E/D|
G/A/G/F/ GA|Bd ed|e/f/g af|g2 g2 :|
ga ag/a/|gf ed|B2 B/c/B/A/|BE ED|
G>A GA|B/c/d/f/ ed|e/f/g/e/ af/a/|g2 g2 :|
